source/img/svg/logo.svg

<svg width="121" height="50" viewBox="0 0 121 50" fill="none" xmlns="http://www.w3.org/2000/svg">
<g clip-path="url(#clip0)">
<path d="M24.9618 49.9615C38.7478 49.9615 49.9236 38.7857 49.9236 24.9997C49.9236 11.2137 38.7478 0.0378914 24.9618 0.0378914C11.1758 0.0378914 0 11.2137 0 24.9997C0 38.7857 11.1758 49.9615 24.9618 49.9615Z" fill="#34ABE0"/>
<path d="M49.9999 25.0003C49.9999 28.6559 49.2144 32.1281 47.8023 35.257C44.3362 42.9381 37.0952 48.551 28.4442 49.7307C27.5232 49.8571 26.5858 49.9325 25.6363 49.9549C25.4376 49.9599 25.2379 49.962 25.0382 49.962C15.8859 49.962 7.88491 45.0369 3.5395 37.693C3.13403 37.0063 2.75903 36.2993 2.4188 35.5728C1.99087 34.6569 1.61597 33.7114 1.29907 32.7384L33.999 0.0384579L34.1304 1.74607L34.3708 4.85145L39.1849 5.22537L39.5588 10.0385L44.3719 10.4124L44.7458 15.2264L48.1233 15.4883C49.3326 18.4205 49.9999 21.6319 49.9999 25.0003Z" fill="#F9EED7"/>
<path d="M49.9999 25.0003C49.9999 28.6559 49.2144 32.1281 47.8023 35.257L23.2917 10.7455L33.9989 0.0384579L34.1303 1.74607L34.3708 4.85145L39.1848 5.22537L39.5588 10.0385L44.3719 10.4124L44.7458 15.2264L48.1232 15.4883C49.3325 18.4205 49.9999 21.6319 49.9999 25.0003Z" fill="#FF525D"/>
<path d="M34.8375 37.3996L32.2374 34.7995C30.4238 32.9859 28.5553 33.5352 27.0168 35.0735C25.4611 36.6304 24.9292 38.4806 26.7428 40.2931L29.3429 42.8941C31.1565 44.7066 33.0067 44.1759 34.5624 42.619C36.1009 41.0808 36.6511 39.2132 34.8375 37.3996ZM32.9699 41.0257C32.4014 41.5942 31.7973 41.6482 31.1931 41.044L28.592 38.4439C27.9878 37.8397 28.0429 37.2346 28.6104 36.6671C29.1789 36.0996 29.8014 36.0263 30.4056 36.6304L33.0067 39.2314C33.6109 39.8357 33.5374 40.4582 32.9699 41.0257ZM28.3912 49.4506L21.6332 29.799C21.5782 29.635 21.4682 29.4883 21.3581 29.3782C20.7723 28.7924 19.8196 28.9748 19.3071 29.4883C18.9771 29.8174 18.8314 30.2575 18.9953 30.7149L25.6361 49.9549C26.5858 49.9324 27.5231 49.857 28.4441 49.7308C28.4411 49.633 28.4238 49.5393 28.3912 49.4506ZM20.5339 39.9091L17.9338 37.308C16.1202 35.4955 14.2527 36.0446 12.7143 37.5831C11.1574 39.1399 10.6267 40.9892 12.4392 42.8026L15.0402 45.4027C16.8527 47.2163 18.703 46.6854 20.2598 45.1287C21.7983 43.5901 22.3475 41.7216 20.5339 39.9091ZM18.6663 43.5352C18.0988 44.1026 17.4937 44.1577 16.8895 43.5535L14.2894 40.9524C13.6842 40.3482 13.7392 39.744 14.3077 39.1766C14.8752 38.6091 15.4978 38.5357 16.102 39.1398L18.703 41.7399C19.3072 42.3441 19.2338 42.9677 18.6663 43.5352Z" fill="#FFD15C"/>
</g>
<path d="M67.152 25.288C67.7493 25.3947 68.256 25.7093 68.672 26.232C69.088 26.7547 69.296 27.3467 69.296 28.008C69.296 28.5733 69.1467 29.0853 68.848 29.544C68.56 29.992 68.1387 30.3493 67.584 30.616C67.0293 30.872 66.384 31 65.648 31H61.2V19.88H65.44C66.1973 19.88 66.848 20.008 67.392 20.264C67.936 20.52 68.3467 20.8667 68.624 21.304C68.9013 21.7307 69.04 22.2107 69.04 22.744C69.04 23.384 68.8693 23.9173 68.528 24.344C68.1867 24.7707 67.728 25.0853 67.152 25.288ZM63.024 24.552H65.28C65.8773 24.552 66.3413 24.4187 66.672 24.152C67.0133 23.8747 67.184 23.48 67.184 22.968C67.184 22.4667 67.0133 22.0773 66.672 21.8C66.3413 21.512 65.8773 21.368 65.28 21.368H63.024V24.552ZM65.488 29.512C66.1067 29.512 66.592 29.3627 66.944 29.064C67.296 28.7653 67.472 28.3493 67.472 27.816C67.472 27.272 67.2853 26.84 66.912 26.52C66.5387 26.2 66.0427 26.04 65.424 26.04H63.024V29.512H65.488ZM73.1021 21.352V24.616H76.9421V26.104H73.1021V29.512H77.4221V31H71.2781V19.864H77.4221V21.352H73.1021ZM79.0608 25.416C79.0608 24.328 79.3114 23.352 79.8128 22.488C80.3248 21.624 81.0128 20.952 81.8768 20.472C82.7514 19.9813 83.7061 19.736 84.7408 19.736C85.9248 19.736 86.9754 20.0293 87.8928 20.616C88.8208 21.192 89.4928 22.0133 89.9088 23.08H87.7168C87.4288 22.4933 87.0288 22.056 86.5168 21.768C86.0048 21.48 85.4128 21.336 84.7408 21.336C84.0048 21.336 83.3488 21.5013 82.7728 21.832C82.1968 22.1627 81.7434 22.6373 81.4128 23.256C81.0928 23.8747 80.9328 24.5947 80.9328 25.416C80.9328 26.2373 81.0928 26.9573 81.4128 27.576C81.7434 28.1947 82.1968 28.6747 82.7728 29.016C83.3488 29.3467 84.0048 29.512 84.7408 29.512C85.4128 29.512 86.0048 29.368 86.5168 29.08C87.0288 28.792 87.4288 28.3547 87.7168 27.768H89.9088C89.4928 28.8347 88.8208 29.656 87.8928 30.232C86.9754 30.808 85.9248 31.096 84.7408 31.096C83.6954 31.096 82.7408 30.856 81.8768 30.376C81.0128 29.8853 80.3248 29.208 79.8128 28.344C79.3114 27.48 79.0608 26.504 79.0608 25.416ZM97.1158 31.112C96.0811 31.112 95.1264 30.872 94.2518 30.392C93.3878 29.9013 92.6998 29.224 92.1878 28.36C91.6864 27.4853 91.4358 26.504 91.4358 25.416C91.4358 24.328 91.6864 23.352 92.1878 22.488C92.6998 21.624 93.3878 20.952 94.2518 20.472C95.1264 19.9813 96.0811 19.736 97.1158 19.736C98.1611 19.736 99.1158 19.9813 99.9798 20.472C100.854 20.952 101.542 21.624 102.044 22.488C102.545 23.352 102.796 24.328 102.796 25.416C102.796 26.504 102.545 27.4853 102.044 28.36C101.542 29.224 100.854 29.9013 99.9798 30.392C99.1158 30.872 98.1611 31.112 97.1158 31.112ZM97.1158 29.528C97.8518 29.528 98.5078 29.3627 99.0838 29.032C99.6598 28.6907 100.108 28.2107 100.428 27.592C100.758 26.9627 100.924 26.2373 100.924 25.416C100.924 24.5947 100.758 23.8747 100.428 23.256C100.108 22.6373 99.6598 22.1627 99.0838 21.832C98.5078 21.5013 97.8518 21.336 97.1158 21.336C96.3798 21.336 95.7238 21.5013 95.1478 21.832C94.5718 22.1627 94.1184 22.6373 93.7878 23.256C93.4678 23.8747 93.3078 24.5947 93.3078 25.416C93.3078 26.2373 93.4678 26.9627 93.7878 27.592C94.1184 28.2107 94.5718 28.6907 95.1478 29.032C95.7238 29.3627 96.3798 29.528 97.1158 29.528Z" fill="#333333"/>
<defs>
<clipPath id="clip0">
<rect width="50" height="50" fill="white"/>
</clipPath>
</defs>
</svg>

<svg width="121" height="50" fill="none" xmlns="http://www.w3.org/2000/svg"><g clip-path="url(#clip0)"><path d="M24.962 49.962c13.786 0 24.962-11.176 24.962-24.962S38.748.038 24.962.038 0 11.214 0 25s11.176 24.962 24.962 24.962z" fill="#34ABE0"/><path d="M50 25a24.87 24.87 0 01-2.198 10.257c-3.466 7.681-10.707 13.294-19.358 14.474a24.985 24.985 0 01-3.406.231c-9.152 0-17.153-4.925-21.498-12.269a24.94 24.94 0 01-2.24-4.955L33.998.038l.131 1.708.24 3.105 4.815.374.374 4.814 4.813.373.374 4.814 3.377.262A24.888 24.888 0 0150 25z" fill="#F9EED7"/><path d="M50 25a24.87 24.87 0 01-2.198 10.257l-24.51-24.511L33.999.037l.131 1.708.24 3.105 4.815.374.374 4.814 4.813.373.374 4.814 3.377.262A24.888 24.888 0 0150 25z" fill="#FF525D"/><path d="M34.837 37.4l-2.6-2.6c-1.813-1.814-3.682-1.265-5.22.274-1.556 1.556-2.088 3.407-.274 5.22l2.6 2.6c1.814 1.813 3.664 1.282 5.22-.275 1.538-1.538 2.088-3.406.274-5.22zm-1.867 3.626c-.569.568-1.173.622-1.777.018l-2.601-2.6c-.604-.604-.55-1.21.018-1.777.569-.567 1.191-.64 1.796-.037l2.6 2.601c.605.605.531 1.227-.036 1.795zm-4.58 8.424l-6.758-19.652a1.128 1.128 0 00-.275-.42c-.586-.587-1.538-.404-2.05.11-.33.328-.477.768-.313 1.226l6.641 19.24c.95-.023 1.887-.098 2.808-.224a.886.886 0 00-.053-.28zm-7.857-9.542l-2.6-2.601c-1.814-1.813-3.681-1.263-5.22.275-1.557 1.557-2.087 3.406-.275 5.22l2.601 2.6c1.813 1.813 3.663 1.282 5.22-.274 1.538-1.539 2.087-3.407.274-5.22zm-1.868 3.626c-.567.568-1.172.623-1.776.019l-2.6-2.602c-.606-.604-.55-1.208.018-1.775.567-.568 1.19-.641 1.794-.037l2.601 2.6c.604.604.53 1.228-.037 1.795z" fill="#FFD15C"/></g><path d="M67.152 25.288c.597.107 1.104.421 1.52.944.416.523.624 1.115.624 1.776 0 .565-.15 1.077-.448 1.536-.288.448-.71.805-1.264 1.072-.555.256-1.2.384-1.936.384H61.2V19.88h4.24c.757 0 1.408.128 1.952.384s.955.603 1.232 1.04c.277.427.416.907.416 1.44 0 .64-.17 1.173-.512 1.6-.341.427-.8.741-1.376.944zm-4.128-.736h2.256c.597 0 1.061-.133 1.392-.4.341-.277.512-.672.512-1.184 0-.501-.17-.89-.512-1.168-.33-.288-.795-.432-1.392-.432h-2.256v3.184zm2.464 4.96c.619 0 1.104-.15 1.456-.448.352-.299.528-.715.528-1.248 0-.544-.187-.976-.56-1.296-.373-.32-.87-.48-1.488-.48h-2.4v3.472h2.464zm7.614-8.16v3.264h3.84v1.488h-3.84v3.408h4.32V31h-6.144V19.864h6.144v1.488h-4.32zm5.959 4.064c0-1.088.25-2.064.752-2.928a5.427 5.427 0 012.064-2.016 5.755 5.755 0 012.864-.736c1.184 0 2.234.293 3.152.88.928.576 1.6 1.397 2.016 2.464h-2.192c-.288-.587-.688-1.024-1.2-1.312-.512-.288-1.104-.432-1.776-.432-.736 0-1.392.165-1.968.496-.576.33-1.03.805-1.36 1.424-.32.619-.48 1.339-.48 2.16 0 .821.16 1.541.48 2.16.33.619.784 1.099 1.36 1.44.576.33 1.232.496 1.968.496.672 0 1.264-.144 1.776-.432.512-.288.912-.725 1.2-1.312h2.192c-.416 1.067-1.088 1.888-2.016 2.464-.918.576-1.968.864-3.152.864-1.046 0-2-.24-2.864-.72a5.548 5.548 0 01-2.064-2.032c-.502-.864-.752-1.84-.752-2.928zm18.055 5.696c-1.035 0-1.99-.24-2.864-.72a5.548 5.548 0 01-2.064-2.032c-.502-.875-.752-1.856-.752-2.944 0-1.088.25-2.064.752-2.928a5.427 5.427 0 012.064-2.016 5.755 5.755 0 012.864-.736c1.045 0 2 .245 2.864.736a5.29 5.29 0 012.064 2.016c.501.864.752 1.84.752 2.928 0 1.088-.251 2.07-.752 2.944a5.404 5.404 0 01-2.064 2.032c-.864.48-1.819.72-2.864.72zm0-1.584c.736 0 1.392-.165 1.968-.496a3.506 3.506 0 001.344-1.44c.33-.63.496-1.355.496-2.176 0-.821-.166-1.541-.496-2.16a3.401 3.401 0 00-1.344-1.424c-.576-.33-1.232-.496-1.968-.496s-1.392.165-1.968.496c-.576.33-1.03.805-1.36 1.424-.32.619-.48 1.339-.48 2.16 0 .821.16 1.547.48 2.176.33.619.784 1.099 1.36 1.44.576.33 1.232.496 1.968.496z" fill="#333"/><defs><clipPath id="clip0"><path fill="#fff" d="M0 0h50v50H0z"/></clipPath></defs></svg>
